X:1
T:Down in Yon Forest
T:(collected by Ralph Vaughan Williams)
M:6/8
L:1/8
K:C
ABAGAB|cBAB2E|
w:Down in yon for est there stands a hall: The
ABAGAB|cBAB2B|cBcdcd|
w:bells_ of Par a dise I heard them ring: It's cov er'd all o ver with
ecA^G3/2^F/E|ABAGAB|cBcHA3||
w:pur ple and pall: And I love my Lord Je sus a bove a ny thing.